icons/svg/32x32/download/filled.svg

<svg xmlns="http://www.w3.org/2000/svg" width="32" height="32" viewBox="0 0 32 32">
  <path fill-rule="evenodd" d="M10.2422,5.3008 C11.0872,6.4898 11.6952,7.7228 12.1022,8.9938 C12.4922,10.2738 12.7202,11.5688 12.8192,12.8958 C12.9162,13.9238 12.9332,14.9248 12.9652,15.9998 L8.0002,15.9998 L16.0002,25.9998 L24.0002,15.9998 L19.0052,15.9998 C18.9762,14.6208 18.7602,13.1608 18.3612,11.7738 C17.8432,10.0378 17.0452,8.3388 15.9102,6.8848 C14.8022,5.4198 13.3882,4.2078 11.8492,3.3728 C10.3042,2.5288 8.6142,2.1458 7.0002,1.9998 C8.2632,3.0658 9.3882,4.1178 10.2422,5.3008 M30.0002,22.9998 L30.0002,25.9998 C30.0002,28.2058 28.2062,29.9998 26.0002,29.9998 L6.0002,29.9998 C3.7942,29.9998 2.0002,28.2058 2.0002,25.9998 L2.0002,22.9998 C2.0002,22.4468 2.4472,21.9998 3.0002,21.9998 C3.5532,21.9998 4.0002,22.4468 4.0002,22.9998 L4.0002,25.9998 C4.0002,27.1028 4.8972,27.9998 6.0002,27.9998 L26.0002,27.9998 C27.1022,27.9998 28.0002,27.1028 28.0002,25.9998 L28.0002,22.9998 C28.0002,22.4468 28.4472,21.9998 29.0002,21.9998 C29.5532,21.9998 30.0002,22.4468 30.0002,22.9998"/>
</svg>

<svg width="32" height="32" fill="none" xmlns="http://www.w3.org/2000/svg">
  <path fill-rule="evenodd" clip-rule="evenodd" d="M10.242 5.3a13.388 13.388 0 011.86 3.694c.39 1.28.618 2.575.717 3.902.097 1.028.114 2.029.146 3.104H8l8 10 8-10h-4.995a16.774 16.774 0 00-.644-4.226c-.518-1.736-1.316-3.435-2.45-4.89a12.81 12.81 0 00-4.062-3.511C10.304 2.529 8.614 2.146 7 2c1.263 1.066 2.388 2.118 3.242 3.3zM30 23v3c0 2.206-1.794 4-4 4H6c-2.206 0-4-1.794-4-4v-3a1 1 0 112 0v3c0 1.103.897 2 2 2h20c1.102 0 2-.897 2-2v-3a1 1 0 112 0z" fill="#000"/>
</svg>
